icons/access-point.svg

<svg width="24" height="24" viewBox="0 0 24 24" fill="none" xmlns="http://www.w3.org/2000/svg">
<path d="M16 9C16.64 9.796 17 10.875 17 12C17 13.125 16.64 14.204 16 15" stroke="white" stroke-width="2" stroke-linecap="round" stroke-linejoin="round"/>
<path d="M19 6C19.6528 6.82259 20.1539 7.75479 20.48 8.753C20.823 9.783 21 10.886 21 12C21 13.114 20.823 14.218 20.48 15.247C20.1539 16.2452 19.6528 17.1774 19 18" stroke="white" stroke-width="2" stroke-linecap="round" stroke-linejoin="round"/>
<path d="M8 15C7.36 14.204 7 13.125 7 12C7 10.875 7.36 9.796 8 9" stroke="white" stroke-width="2" stroke-linecap="round" stroke-linejoin="round"/>
<path d="M5 18C4.34728 17.1774 3.84613 16.2452 3.52 15.247C3.1739 14.1995 2.99833 13.1032 3 12C2.99833 10.8968 3.1739 9.8005 3.52 8.753C3.84615 7.75482 4.3473 6.82263 5 6" stroke="white" stroke-width="2" stroke-linecap="round" stroke-linejoin="round"/>
<path d="M12 13C12.5523 13 13 12.5523 13 12C13 11.4477 12.5523 11 12 11C11.4477 11 11 11.4477 11 12C11 12.5523 11.4477 13 12 13Z" stroke="white" stroke-width="2" stroke-linecap="round" stroke-linejoin="round"/>
</svg>

<svg
  width="24"
  height="24"
  viewBox="0 0 24 24"
  xmlns="http://www.w3.org/2000/svg"
  fill="none"
  stroke="currentColor"
  stroke-width="2"
  stroke-linecap="round"
  stroke-linejoin="round"
>
  <path d="M16 9c.64.796 1 1.875 1 3s-.36 2.204-1 3" />
  <path d="M19 6a8.85 8.85 0 0 1 1.48 2.753c.343 1.03.52 2.133.52 3.247 0 1.114-.177 2.218-.52 3.247A8.85 8.85 0 0 1 19 18" />
  <path d="M8 15c-.64-.796-1-1.875-1-3s.36-2.204 1-3" />
  <path d="M5 18a8.852 8.852 0 0 1-1.48-2.753A10.3 10.3 0 0 1 3 12a10.3 10.3 0 0 1 .52-3.247A8.853 8.853 0 0 1 5 6" />
  <path d="M12 13a1 1 0 1 0 0-2 1 1 0 0 0 0 2z" />
</svg>
